X: 21821
T: BLUE BONNETS OVER THE BORDER
O: Scotch air
Q: "With spirit."
%R: jig, march
B: W. Hamilton "Universal Tune-Book" Vol. 2 Glasgow 1846 p.182 #1
S: http://s3-eu-west-1.amazonaws.com/itma.dl.printmaterial/book_pdfs/hamiltonvol2web.pdf
Z: 2016 John Chambers <jc:trillian.mit.edu>
M: 6/8
L: 1/8
K: Bb
% - - - - - - - - - - - - - - - - - - - - - - - - -
|:\
B,3 B,CD | B>cd B2F | BGG G2f | g>fe {d}c2B |\
B,3 B,CD | B>cd/e/ {d}BGF | [B3E3B,3] FDF | FBD {D}C2B, :|
|:\
Bdf fdB | g>fe {d}c2B | Bdf g>ab | B>cd/e/ {d}c2B |\
Bdf fdB | g>fe {d}cBc | [B3E3B,3] FDF | FBD C2B, :|
% - - - - - - - - - - - - - - - - - - - - - - - - -

%%sep 1 1 500
%%sep 1 1 500

